icons/fill-new-office-doc-document-loading.svg

<svg xmlns="http://www.w3.org/2000/svg" width="32px" height="32px" viewBox="0 0 32 32" version="1.1">
    <title>fill-new-office-doc-document-loading</title>
    <g id="fill-new-office-doc-document-loading" stroke-width="1" fill-rule="evenodd">
        <path d="M18,24 C18,26.7614237 20.2385763,29 23,29 C24.1718816,29 25.249601,28.5968439 26.1020287,27.9216613 L24.5,26 L29.7098107,26.0010432 C28.8489278,28.8919961 26.1706393,31 23,31 C19.1340068,31 16,27.8659932 16,24 L18,24 Z M27,2 C27.5522847,2 28,2.44771525 28,3 L28.00121,16.5163591 C26.570872,15.5585866 24.8506685,15 23,15 C18.0294373,15 14,19.0294373 14,24 C14,26.3053753 14.8667953,28.4082996 16.2922591,30.0006464 L5,30 C4.44771525,30 4,29.5522847 4,29 L4,3 C4,2.44771525 4.44771525,2 5,2 L27,2 Z M23,17 C26.8659932,17 30,20.1340068 30,24 L28,24 C28,21.2385763 25.7614237,19 23,19 C21.8282872,19 20.7507094,19.40304 19.8983395,20.0780471 L21.5,22 L16.2898925,21.9999537 C17.1504565,19.1084885 19.8289963,17 23,17 Z M15,14 L11,14 C10.4477153,14 10,14.4477153 10,15 C10,15.5522847 10.4477153,16 11,16 L15,16 C15.5522847,16 16,15.5522847 16,15 C16,14.4477153 15.5522847,14 15,14 Z M21,8 L11,8 C10.4477153,8 10,8.44771525 10,9 C10,9.55228475 10.4477153,10 11,10 L21,10 C21.5522847,10 22,9.55228475 22,9 C22,8.44771525 21.5522847,8 21,8 Z" id="&#24418;&#29366;" />
    </g>
</svg>

<svg xmlns="http://www.w3.org/2000/svg" viewBox="0 0 32 32"><path fill="currentColor" d="M18 24a5 5 0 0 0 8.102 3.922L24.5 26l5.21.001A7 7 0 0 1 16 24zm9-22a1 1 0 0 1 1 1l.001 13.516A9 9 0 0 0 16.292 30H5a1 1 0 0 1-1-1V3a1 1 0 0 1 1-1zm-4 15a7 7 0 0 1 7 7h-2a5 5 0 0 0-8.102-3.922L21.5 22h-5.21c.86-2.892 3.539-5 6.71-5m-8-3h-4a1 1 0 0 0 0 2h4a1 1 0 0 0 0-2m6-6H11a1 1 0 0 0 0 2h10a1 1 0 0 0 0-2"/></svg>
